!!!OTL: 301. Das treue deutsche Herz.
!!!COM: J. Otto (der aeltere)
!!!ARE: Europa, Mitteleuropa, Deutschland
!!!SCT: B0301
!!!TXL: @@DE
!!!YEM: Copyright 1995, estate of Helmut Schaffrath.
**kern	**text
*ICvox	*
*Ivox	*
*clefG2	*
*M3/4	*
*k[f#]	*
*G:	*
!LO:TX:a:t=Mäßig.	!
{4d	Jch
=1	=1
8b	kenn
8g	ein'n
4.cc	hel-
8b	-len
=2	=2
8b	E-
8a	-del-
4.a}	-ſtein
{8g	von
=3	=3
8f#	treff-
8a	-lich
4.dd	ho-
8cc	-her
=4	=4
2b}	Art.
{4d	Jn
=5	=5
8b	ei-
8g	-nem
4.cc	ſtil-
8b	-len
=6	=6
8b	Käm-
8a	-mer-
4.a}	-lein
{8a	da
=7	=7
4.g	liegt
8b	er
8a	gut
8g	ver-
=8	=8
8f#}	-wahrt,
{8g	da
4a	liegt
4b	er
=9	=9
2a	gut
4c#	ver-
=10	=10
4d	-wahrt.
4r}	.
{4d	Kein
=11	=11
8a	De-
8g#	-mant
4.a	iſt,
8b	der
=12	=12
8cc	die-
8b	-ſem
4.a}	gleicht,
{8d	ſo
=13	=13
8b	weit
8a	der
4.b	lie-
8cc	-be
=14	=14
8dd	Him-
8cc	-mel
4b}	reicht,
{4b	ſo
=15	=15
8.e	weit
16e	der
8e	lie-
8f#	-be
8g	Him-
8a	-mel
=16	=16
2b}	reicht.
{4cc	Die
=17	=17
8b	Men-
8g	-ſchen-
4.cc	-bruſt
8b	iſt's
=18	=18
8b	Käm-
8a	-mer-
4.a}	-lein,
{8g	da
=19	=19
8f#	leg-
8a	-te
4.dd	Gott
8cc	ſo
=20	=20
8cc	tief
8b	hin-
4b}	-ein
{4g	den
=21	=21
4.cc	ſchö-
8cc	-nen
8cc	hel-
8cc	-len
=22	=22
8.cc	E-
16a	-del-
4a}	-ſtein,
{4cc	das
=23	=23
(4.b	treu-
8dd)	.
8cc	-e,
8a	das
=24	=24
8g	treu-
8f#	-e
4.b	deut-
8a	-ſche
=25	=25
4g	Herʒ.
4r}	.
==	==
!!!AGN: Stimmungs - Lied, Treue, Moral
!!!GTL: Lieder der Freude und Geseligkeit
!!!ONB: ESAC (Essen Associative Code) Database: BOEHME
!!!AMT: simple triple
!!!AIN: vox
!!!EED: Helmut Schaffrath
!!!EEV: 1.0
!!@@COMMENT:"Gedicht von Jul. Otto, dem juengeren."
!!@@END:
!!!Text: Jul. Otto
!!!URL-scan: https://archive.org/details/BoehmeVtLieder1895/page/n251/mode/2up
!!!ENC: Anna Maria Matuszewska
!!!EEV: 2024/04/07
*-	*-
